X: 37741
T: Solid Man, The
R: reel
M: 4/4
K: Eminor
BEGE FAdA|Beef edBA|GcAB FE D2|EFED Bd A2|
BEGE FAdA|Beef gf e2|b3a gfed|BAFD E4:|
|:BcBA F2 (3FED|E2 edBd A2|BcBA F2 (3FED|Ee ed e2 z2|
e2 ed B2 BA|F2 ABdB e2|edBA F2 (3FED|E2 ED E4:|

